X: 1
T: Highland Cathedral Orchestrated 
M: 4/4
L: 1/8
Q:1/4=60
K:Eb % 3 flats
V:1 name="Flute" sname="Flute"
z8| \
z8| \
z8| \
z8|
z4 
%%MIDI program 72
e''/2d''/2c''/2b'/2 a'/2g'/2f'/2e'/2| \
g'3a'/2b'/2 a'4| \
z4 b/2c'/2d'/2e'/2 f'/2g'/2e''/2d''/2| \
a'4 g'4|
b'3a' g'4| \
f'3g'/2a'/2 b'2 e''2| \
d''b' a'e' e'4| \
d'4 f'3d'/2f'/2|
g'3d'2<d'2c'| \
b3c'/2d'/2 c'4| \
d'3-[e'd'-]/2[f'd']/2 c'4| \
d'3b2<f'2d'/2f'/2|
g'3d'2<d'2c'| \
b3c'/2d'/2 c'3b| \
b2 d'2 f'2 b'2| \
b'/2b/2c'/2d'/2 e'/2f'/2g'/2a'/2 b'/2e'/2f'/2g'/2 a'/2b'/2c''/2d''/2|
b'/2g'/2f'/2e'/2 b'/2g'/2f'/2e'/2 b'/2g'/2f'/2e'/2 b'/2g'/2f'/2e'/2| \
b'/2g'/2f'/2e'/2 b'/2g'/2f'/2e'/2 b'/2g'/2f'/2e'/2 b'/2g'/2f'/2e'/2| \
c''/2a'/2g'/2f'/2 c''/2a'/2g'/2f'/2 c''/2a'/2g'/2f'/2 c''/2a'/2g'/2f'/2| \
a'/2g'/2f'/2e'/2 a'/2g'/2f'/2e'/2 b'/2a'/2g'/2f'/2 b'/2a'/2g'/2f'/2|
c''/2a'/2g'/2a'/2 c''/2a'/2g'/2a'/2 b'/2g'/2e'/2g'/2 c''/2g'/2e'/2g'/2| \
b'/2g'/2f'/2e'/2 b'/2g'/2f'/2e'/2 b'/2a'/2g'/2c''/2 c''/2g'/2f'/2e'/2| \
c''/2a'/2g'/2f'/2 c''/2a'/2g'/2f'/2 e''/2b'/2a'/2g'/2 e''/2b'/2a'/2g'/2| \
d''/2c''/2b'/2a'/2 g'/2f'/2e'/2d'/2 e'g' b'2|
d'4 f'3d'/2f'/2| \
g'3d'2<d'2c'| \
b3c'/2d'/2 c'4| \
d'3-[e'd'-]/2[f'd']/2 c'4|
d'3b2<f'2d'/2f'/2| \
g'3d'2<d'2c'| \
b3c'/2d'/2 c'3b| \
b2 d'2 f'2 b'2|
b'/2b/2c'/2d'/2 e'/2f'/2g'/2a'/2 b'/2e'/2f'/2g'/2 a'/2b'/2c''/2d''/2| \
b'/2g'/2f'/2e'/2 b'/2g'/2f'/2e'/2 b'/2g'/2f'/2e'/2 b'/2g'/2f'/2e'/2| \
b'/2g'/2f'/2e'/2 b'/2g'/2f'/2e'/2 b'/2g'/2f'/2e'/2 b'/2g'/2f'/2e'/2| \
c''/2a'/2g'/2f'/2 c''/2a'/2g'/2f'/2 c''/2a'/2g'/2f'/2 c''/2a'/2g'/2f'/2|
a'/2g'/2f'/2e'/2 a'/2g'/2f'/2e'/2 b'/2a'/2g'/2f'/2 b'/2a'/2g'/2f'/2| \
c''/2a'/2g'/2a'/2 c''/2a'/2g'/2a'/2 b'/2g'/2e'/2g'/2 c''/2g'/2e'/2g'/2| \
b'/2g'/2f'/2e'/2 b'/2g'/2f'/2e'/2 b'/2a'/2g'/2c''/2 c''/2g'/2f'/2e'/2| \
c''/2a'/2g'/2f'/2 c''/2a'/2g'/2f'/2 e''/2b'/2a'/2g'/2 e''/2b'/2a'/2g'/2|
f''3e'' e''4| \
b'/2z/2a'/2z/2 g'/2z/2f'/2z/2 e'/2z/2g'/2z/2 b'/2z/2e''/2z/2| \
a'2 a'2 [g'e']4|
V:2
z8| \
z8| \
z8| \
z8|
z8| \
z8| \
z8| \
z8|
z8| \
%%MIDI program 66
F,4 G,4| \
F,4 E,4| \
zB, DB, zC FC|
zB, DB, zB, DB,| \
G,4 A,4| \
B,4 C4| \
zB, DB, zC FC|
zB, DB, zB, DB,| \
G,4 A,4| \
B,4 A,4| \
G,4 F,4|
G,4 E4| \
D4 E4| \
C4 D4| \
F4 D4|
C4 E4| \
B,2 B,2 C2 B,2| \
A,4 B,4| \
A,4 B,4|
zB, DB, zC FC| \
zB, DB, zB, DB,| \
G,4 A,4| \
B,4 C4|
zB, DB, zC FC| \
zB, DB, zB, DB,| \
G,4 A,4| \
B,4 A,4|
G,4 F,4| \
G,4 E4| \
D4 E4| \
C4 D4|
F4 D4| \
C4 E4| \
B,2 B,2 C2 B,2| \
A,4 B,4|
D4 E4| \
B4 E4| \
C4 B,4|
V:3
z8| \
z8| \
z8| \
z8|
z8| \
z8| \
z8| \
z8|
z8| \
%%MIDI program 65
%%MIDI program 65
dd df =ec Gc| \
dd d=e e4| \
=B4 d4|
=e4 d4| \
c4 d4| \
=B4 d4| \
=B4 d4|
=e4 d4| \
c4 g4| \
g8| \
c8|
cc c=e dc Gc| \
dd d=e e4| \
=ee ef fe dc| \
dd d=e Gz3|
=AA Az cG =Bc| \
gz gf =ez3| \
dd d=e ec Gc| \
dd dc c
V:4 name="Sax" sname="Sax" transpose=-4
z8| \
z8| \
z8| \
z8|
z8| \
z8| \
z8| \
z8|
z8| \
z8| \
z8| \
%%MIDI program 71
D/2F/2F/2F/2 D/2F/2F/2F/2 C/2F/2F/2F/2 C/2F/2F/2F/2|
D/2G/2G/2G/2 D/2G/2G/2G/2 D/2F/2F/2F/2 D/2F/2F/2F/2| \
E/2G/2G/2G/2 E/2G/2G/2G/2 D/2F/2F/2F/2 D/2F/2F/2F/2| \
D/2F/2F/2F/2 D/2F/2F/2F/2 C/2F/2F/2E/2 C/2F/2F/2F/2| \
D/2F/2B/2B/2 D/2F/2B/2B/2 F/2A/2A/2A/2 F/2A/2A/2A/2|
D/2B/2B/2B/2 D/2B/2B/2B/2 D/2B/2B/2B/2 D/2B/2B/2B/2| \
G/2B/2B/2B/2 G/2B/2B/2B/2 A/2c/2c/2c/2 [cA]/2c/2c/2c/2| \
Bc de Bc de| \
cd ef cd ef|
g2 e2 B2 e2| \
f2 fg g4| \
e4 d4| \
c4 d4|
c4 e4| \
b4 g4| \
f4 g4| \
d4 e4|
D/2F/2F/2F/2 D/2F/2F/2F/2 C/2F/2F/2F/2 C/2F/2F/2F/2| \
D/2G/2G/2G/2 D/2G/2G/2G/2 D/2F/2F/2F/2 D/2F/2F/2F/2| \
E/2G/2G/2G/2 E/2G/2G/2G/2 D/2F/2F/2F/2 D/2F/2F/2F/2| \
D/2F/2F/2F/2 D/2F/2F/2F/2 C/2F/2F/2E/2 C/2F/2F/2F/2|
D/2F/2B/2B/2 D/2F/2B/2B/2 F/2A/2A/2A/2 F/2A/2A/2A/2| \
D/2B/2B/2B/2 D/2B/2B/2B/2 D/2B/2B/2B/2 D/2B/2B/2B/2| \
G/2B/2B/2B/2 G/2B/2B/2B/2 A/2c/2c/2c/2 [cA]/2c/2c/2c/2| \
Bc de Bc de|
cd ef cd ef| \
g2 e2 B2 e2| \
f2 fg g4| \
e4 d4|
c4 d4| \
c4 e4| \
b4 g4| \
f4 g4|
f4 e4| \
d4 e4| \
c4 B4|
V:5 name="Clarinet" sname="Clarinet"
z8| \
z8| \
z8| \
%%MIDI program 71
B,E EE B,E EE|
DF F2 B,E E2| \
EG G2 DF F2| \
CF F2 D4| \
CE E2 E4|
B3A G4| \
A4 G4| \
F4 E4| \
d3B2<f2d/2f/2|
g3d2<d2c| \
B3c/2d/2 c4| \
d3e/2f/2 c4| \
d3B2<f2d/2f/2|
g3d2<d2c| \
B3c/2d/2 c3-[cB]| \
B4 d4| \
f4 b4|
e3f/2g/2 f/2z/2e/2z/2 B/2z/2e/2z/2| \
f3z g4| \
g3a/2b/2 a/2z/2g/2z/2 f/2z/2e/2z/2| \
f3z B4|
c3d/2e/2 eB de| \
b3a g4| \
f3g/2a/2 ge Be| \
f3e e4|
d3B2<f2d/2f/2| \
g3d2<d2c| \
B3c/2d/2 c4| \
d3e/2f/2 c4|
d3B2<f2d/2f/2| \
g3d2<d2c| \
B3c/2d/2 c3-[cB]| \
B4 d4|
f4 b4| \
e3f/2g/2 f/2z/2e/2z/2 B/2z/2e/2z/2| \
f3z g4| \
g3a/2b/2 a/2z/2g/2z/2 f/2z/2e/2z/2|
f3z B4| \
c3d/2e/2 eB de| \
b3a g4| \
f3g/2a/2 ge Be|
f3e e4| \
b4 g4| \
aa aa e4|
V:6
%%MIDI channel 10
[K:C]]z8| \
D,,/2z/2 (3D,,/2D,,/2D,,/2 D,,/2z/2 (3D,,/2D,,/2D,,/2 D,,/2z/2 (3D,,/2D,,/2D,,/2  (3D,,/2D,,/2D,,/2 (3D,,/2D,,/2D,,/2| \
D,,/2z/2 (3D,,/2D,,/2D,,/2 D,,/2z/2 (3D,,/2D,,/2D,,/2 D,,/2z/2 (3D,,/2D,,/2D,,/2  (3D,,/2D,,/2D,,/2 (3D,,/2D,,/2D,,/2| \
D,,/2z/2 (3D,,/2D,,/2D,,/2 D,,/2z/2 (3D,,/2D,,/2D,,/2 D,,/2z/2 (3D,,/2D,,/2D,,/2  (3D,,/2D,,/2D,,/2 (3D,,/2D,,/2D,,/2|
D,,/2z/2 (3D,,/2D,,/2D,,/2 D,,/2z/2 (3D,,/2D,,/2D,,/2 D,,/2z/2 (3D,,/2D,,/2D,,/2  (3D,,/2D,,/2D,,/2 (3D,,/2D,,/2D,,/2| \
D,,/2z/2 (3D,,/2D,,/2D,,/2 D,,/2z/2 (3D,,/2D,,/2D,,/2 D,,/2z/2 (3D,,/2D,,/2D,,/2  (3D,,/2D,,/2D,,/2 (3D,,/2D,,/2D,,/2| \
D,,/2z/2 (3D,,/2D,,/2D,,/2 D,,/2z/2 (3D,,/2D,,/2D,,/2 D,,/2z/2 (3D,,/2D,,/2D,,/2  (3D,,/2D,,/2D,,/2 (3D,,/2D,,/2D,,/2| \
D,,/2z/2 (3D,,/2D,,/2D,,/2 D,,/2z/2 (3D,,/2D,,/2D,,/2 D,,/2z/2 (3D,,/2D,,/2D,,/2  (3D,,/2D,,/2D,,/2 (3D,,/2D,,/2D,,/2|
D,,/2z/2 (3D,,/2D,,/2D,,/2 D,,/2z/2 (3D,,/2D,,/2D,,/2 D,,/2z/2 (3D,,/2D,,/2D,,/2  (3D,,/2D,,/2D,,/2 (3D,,/2D,,/2D,,/2| \
D,,/2z/2 (3D,,/2D,,/2D,,/2 D,,/2z/2 (3D,,/2D,,/2D,,/2 D,,/2z/2 (3D,,/2D,,/2D,,/2  (3D,,/2D,,/2D,,/2 (3D,,/2D,,/2D,,/2| \
D,,/2z/2 (3D,,/2D,,/2D,,/2 D,,/2z/2 (3D,,/2D,,/2D,,/2 D,,/2z/2 (3D,,/2D,,/2D,,/2  (3D,,/2D,,/2D,,/2 (3D,,/2D,,/2D,,/2| \
D,,/2z/2 (3D,,/2D,,/2D,,/2 D,,/2z/2 (3D,,/2D,,/2D,,/2 D,,/2z/2 (3D,,/2D,,/2D,,/2  (3D,,/2D,,/2D,,/2 (3D,,/2D,,/2D,,/2|
D,,/2z/2 (3D,,/2D,,/2D,,/2 D,,/2z/2 (3D,,/2D,,/2D,,/2 D,,/2z/2 (3D,,/2D,,/2D,,/2  (3D,,/2D,,/2D,,/2 (3D,,/2D,,/2D,,/2| \
D,,/2z/2 (3D,,/2D,,/2D,,/2 D,,/2z/2 (3D,,/2D,,/2D,,/2 D,,/2z/2 (3D,,/2D,,/2D,,/2  (3D,,/2D,,/2D,,/2 (3D,,/2D,,/2D,,/2| \
D,,/2z/2 (3D,,/2D,,/2D,,/2 D,,/2z/2 (3D,,/2D,,/2D,,/2 D,,/2z/2 (3D,,/2D,,/2D,,/2  (3D,,/2D,,/2D,,/2 (3D,,/2D,,/2D,,/2| \
D,,/2z/2 (3D,,/2D,,/2D,,/2 D,,/2z/2 (3D,,/2D,,/2D,,/2 D,,/2z/2 (3D,,/2D,,/2D,,/2  (3D,,/2D,,/2D,,/2 (3D,,/2D,,/2D,,/2|
D,,/2z/2 (3D,,/2D,,/2D,,/2 D,,/2z/2 (3D,,/2D,,/2D,,/2 D,,/2z/2 (3D,,/2D,,/2D,,/2  (3D,,/2D,,/2D,,/2 (3D,,/2D,,/2D,,/2| \
D,,/2z/2 (3D,,/2D,,/2D,,/2 D,,/2z/2 (3D,,/2D,,/2D,,/2 D,,/2z/2 (3D,,/2D,,/2D,,/2  (3D,,/2D,,/2D,,/2 (3D,,/2D,,/2D,,/2| \
D,,/2z/2 (3D,,/2D,,/2D,,/2 D,,/2z/2 (3D,,/2D,,/2D,,/2 D,,/2z/2 (3D,,/2D,,/2D,,/2  (3D,,/2D,,/2D,,/2 (3D,,/2D,,/2D,,/2| \
D,,/2z/2 (3D,,/2D,,/2D,,/2 D,,/2z/2 (3D,,/2D,,/2D,,/2 D,,/2z/2 (3D,,/2D,,/2D,,/2  (3D,,/2D,,/2D,,/2 (3D,,/2D,,/2D,,/2|
D,,/2z/2 (3D,,/2D,,/2D,,/2 D,,/2z/2 (3D,,/2D,,/2D,,/2 D,,/2z/2 (3D,,/2D,,/2D,,/2  (3D,,/2D,,/2D,,/2 (3D,,/2D,,/2D,,/2| \
D,,/2z/2 (3D,,/2D,,/2D,,/2 D,,/2z/2 (3D,,/2D,,/2D,,/2 D,,/2z/2 (3D,,/2D,,/2D,,/2  (3D,,/2D,,/2D,,/2 (3D,,/2D,,/2D,,/2| \
D,,/2z/2 (3D,,/2D,,/2D,,/2 D,,/2z/2 (3D,,/2D,,/2D,,/2 D,,/2z/2 (3D,,/2D,,/2D,,/2  (3D,,/2D,,/2D,,/2 (3D,,/2D,,/2D,,/2| \
D,,/2z/2 (3D,,/2D,,/2D,,/2 D,,/2z/2 (3D,,/2D,,/2D,,/2 D,,/2z/2 (3D,,/2D,,/2D,,/2  (3D,,/2D,,/2D,,/2 (3D,,/2D,,/2D,,/2|
D,,/2z/2 (3D,,/2D,,/2D,,/2 D,,/2z/2 (3D,,/2D,,/2D,,/2 D,,/2z/2 (3D,,/2D,,/2D,,/2  (3D,,/2D,,/2D,,/2 (3D,,/2D,,/2D,,/2| \
D,,/2z/2 (3D,,/2D,,/2D,,/2 D,,/2z/2 (3D,,/2D,,/2D,,/2 D,,/2z/2 (3D,,/2D,,/2D,,/2  (3D,,/2D,,/2D,,/2 (3D,,/2D,,/2D,,/2| \
D,,/2z/2 (3D,,/2D,,/2D,,/2 D,,/2z/2 (3D,,/2D,,/2D,,/2 D,,/2z/2 (3D,,/2D,,/2D,,/2  (3D,,/2D,,/2D,,/2 (3D,,/2D,,/2D,,/2| \
D,,/2z/2 (3D,,/2D,,/2D,,/2 D,,/2z/2 (3D,,/2D,,/2D,,/2 D,,/2z/2 (3D,,/2D,,/2D,,/2  (3D,,/2D,,/2D,,/2 (3D,,/2D,,/2D,,/2|
D,,/2z/2 (3D,,/2D,,/2D,,/2 D,,/2z/2 (3D,,/2D,,/2D,,/2 D,,/2z/2 (3D,,/2D,,/2D,,/2  (3D,,/2D,,/2D,,/2 (3D,,/2D,,/2D,,/2| \
D,,/2z/2 (3D,,/2D,,/2D,,/2 D,,/2z/2 (3D,,/2D,,/2D,,/2 D,,/2z/2 (3D,,/2D,,/2D,,/2  (3D,,/2D,,/2D,,/2 (3D,,/2D,,/2D,,/2| \
D,,/2z/2 (3D,,/2D,,/2D,,/2 D,,/2z/2 (3D,,/2D,,/2D,,/2 D,,/2z/2 (3D,,/2D,,/2D,,/2  (3D,,/2D,,/2D,,/2 (3D,,/2D,,/2D,,/2| \
D,,/2z/2 (3D,,/2D,,/2D,,/2 D,,/2z/2 (3D,,/2D,,/2D,,/2 D,,/2z/2 (3D,,/2D,,/2D,,/2  (3D,,/2D,,/2D,,/2 (3D,,/2D,,/2D,,/2|
D,,/2z/2 (3D,,/2D,,/2D,,/2 D,,/2z/2 (3D,,/2D,,/2D,,/2 D,,/2z/2 (3D,,/2D,,/2D,,/2  (3D,,/2D,,/2D,,/2 (3D,,/2D,,/2D,,/2| \
D,,/2z/2 (3D,,/2D,,/2D,,/2 D,,/2z/2 (3D,,/2D,,/2D,,/2 D,,/2z/2 (3D,,/2D,,/2D,,/2  (3D,,/2D,,/2D,,/2 (3D,,/2D,,/2D,,/2| \
D,,/2z/2 (3D,,/2D,,/2D,,/2 D,,/2z/2 (3D,,/2D,,/2D,,/2 D,,/2z/2 (3D,,/2D,,/2D,,/2  (3D,,/2D,,/2D,,/2 (3D,,/2D,,/2D,,/2| \
D,,/2z/2 (3D,,/2D,,/2D,,/2 D,,/2z/2 (3D,,/2D,,/2D,,/2 D,,/2z/2 (3D,,/2D,,/2D,,/2  (3D,,/2D,,/2D,,/2 (3D,,/2D,,/2D,,/2|
D,,/2z/2 (3D,,/2D,,/2D,,/2 D,,/2z/2 (3D,,/2D,,/2D,,/2 D,,/2z/2 (3D,,/2D,,/2D,,/2  (3D,,/2D,,/2D,,/2 (3D,,/2D,,/2D,,/2| \
D,,/2z/2 (3D,,/2D,,/2D,,/2 D,,/2z/2 (3D,,/2D,,/2D,,/2 D,,/2z/2 (3D,,/2D,,/2D,,/2  (3D,,/2D,,/2D,,/2 (3D,,/2D,,/2D,,/2| \
D,,/2z/2 (3D,,/2D,,/2D,,/2 D,,/2z/2 (3D,,/2D,,/2D,,/2 D,,/2z/2 (3D,,/2D,,/2D,,/2  (3D,,/2D,,/2D,,/2 (3D,,/2D,,/2D,,/2| \
D,,/2z/2 (3D,,/2D,,/2D,,/2 D,,/2z/2 (3D,,/2D,,/2D,,/2 D,,/2z/2 (3D,,/2D,,/2D,,/2  (3D,,/2D,,/2D,,/2 (3D,,/2D,,/2D,,/2|
D,,/2z/2 (3D,,/2D,,/2D,,/2 D,,/2z/2 (3D,,/2D,,/2D,,/2 D,,/2z/2 (3D,,/2D,,/2D,,/2  (3D,,/2D,,/2D,,/2 (3D,,/2D,,/2D,,/2| \
D,,/2z/2 (3D,,/2D,,/2D,,/2 D,,/2z/2 (3D,,/2D,,/2D,,/2 D,,/2z/2 (3D,,/2D,,/2D,,/2  (3D,,/2D,,/2D,,/2 (3D,,/2D,,/2D,,/2| \
D,,/2z/2 (3D,,/2D,,/2D,,/2 D,,/2z/2 (3D,,/2D,,/2D,,/2 D,,/2z/2 (3D,,/2D,,/2D,,/2  (3D,,/2D,,/2D,,/2 (3D,,/2D,,/2D,,/2| \
D,,/2z/2 (3D,,/2D,,/2D,,/2 D,,/2z/2 (3D,,/2D,,/2D,,/2 D,,/2z/2 (3D,,/2D,,/2D,,/2  (3D,,/2D,,/2D,,/2 (3D,,/2D,,/2D,,/2|
D,,/2z/2 (3D,,/2D,,/2D,,/2 D,,/2z/2 (3D,,/2D,,/2D,,/2 D,,/2z/2 (3D,,/2D,,/2D,,/2  (3D,,/2D,,/2D,,/2 (3D,,/2D,,/2D,,/2| \
D,,/2z/2 (3D,,/2D,,/2D,,/2 D,,/2z/2 (3D,,/2D,,/2D,,/2 D,,/2z/2 (3D,,/2D,,/2D,,/2  (3D,,/2D,,/2D,,/2 (3D,,/2D,,/2D,,/2| \
D,,/2z/2 (3D,,/2D,,/2D,,/2 D,,/2z/2 (3D,,/2D,,/2D,,/2 D,,/2z/2 (3D,,/2D,,/2D,,/2  (3D,,/2D,,/2D,,/2 (3D,,/2D,,/2D,,/2|
V:7
z8| \
z8| \
z8| \
z8|
z8| \
z8| \
z8| \
z8|
z8| \
z8| \
z8| \
z8|
z8| \
z8| \
z8| \
%%MIDI program 56
[BD]3[BD] [AF]3[AF]|
[BG]2 [BG]2 [BD]4| \
[BG]2 [BG]2 [AF]2 [AF]2| \
[BD]8| \
[BD]2 [BD]2 [BD][BD] [BD][BD]|
E3F/2G/2 FE B,E| \
FF FG G4| \
G3A/2B/2 AG FE| \
FF FG B,4|
C3D/2E/2 EB, DE| \
BB BA G4| \
F3G/2A/2 GE B,E| \
FF FE E4|
z8| \
z8| \
z8| \
z8|
[BD]3[BD] [AF]3[AF]| \
[BG]2 [BG]2 [BD]4| \
[BG]2 [BG]2 [AF]2 [AF]2| \
[BD]8|
[BD]2 [BD]2 [BD][BD] [BD][BD]| \
E3F/2G/2 FE B,E| \
FF FG G4| \
G3A/2B/2 AG FE|
FF FG B,4| \
C3D/2E/2 EB, DE| \
BB BA G4| \
F3G/2A/2 GE B,E|
F4 E4| \
B4 G4| \
A4 e4|
V:8 name="Trombone" sname="Trombone"
z8| \
z8| \
z8| \
%%MIDI program 57
[EG,]8|
[DF,]4 [EG,]4| \
[CE,]4 [DF,]4| \
[CF,]4 [B,F,]4| \
[CA,]4 [EG,]4|
[DA,]4 [CG,]4| \
[CA,]4 [EG,]4| \
[DF,]4 [EG,]4| \
D4 F4|
G4 F4| \
E4 F4| \
D4 C4| \
D4 F4|
G4 F4| \
E4 F4| \
[DB,]8| \
[DB,]8|
[EG,]4 [FG,][EG,] [EG,][EG,]| \
[FB,]4 [GE]4| \
[EC]4 [D-B,]2 [D-A,][DA,]| \
[C=A,]4 [DB,]4|
[CA,-]3[DA,-]/2[EA,]/2 [EG,-][B,G,-] [DG,-][EG,]| \
[B,F,-][B,F,-] [B,F,-][A,F,] [G,E,]4| \
F,3-[G,F,-]/2[A,F,]/2 [G,E,-][E,-E,] [E,-B,,][E,E,]| \
F,3-[B,F,] [EG,]4|
D4 F4| \
G4 F4| \
E4 F4| \
D4 C4|
D4 F4| \
G4 F4| \
E4 F4| \
[DB,]8|
[DB,]8| \
[EG,]4 [FG,][EG,] [EG,][EG,]| \
[FB,]4 [GE]4| \
[EC]4 [D-B,]2 [D-A,][DA,]|
[C=A,]4 [DB,]4| \
[CA,-]3[DA,-]/2[EA,]/2 [EG,-][B,G,-] [DG,-][EG,]| \
[B,F,-][B,F,-] [B,F,-][A,F,] [G,E,]4| \
F,3-[G,F,-]/2[A,F,]/2 [G,E,-][E,-E,] [E,-B,,][E,E,]|
[FF,-][FF,-] [FF,-][EF,] [E-G,][E-G,] [E-D,][EC,]| \
[D-B,,][D-A,,] [D-G,,][DF,,] [G,E,,]4| \
[CA,,][CA,,] [CA,,][CA,,] [EG,]4|
V:9 name="Tuba" sname="Tuba"
z8| \
z8| \
z8| \
%%MIDI program 58
E,,4 E,,4|
B,,,4 z4| \
C,,4 B,,,4| \
=A,,,4 B,,,4| \
A,,,4 G,,,4|
B,,,2- [=B,,,_B,,,]2 C,,3-[C,,B,,,]| \
A,,,4 B,,,4| \
B,,,4 E,,4| \
B,,,4 =A,,,4|
G,,,4 F,,,4| \
E,,,4 F,,,4| \
B,,,4 F,,4| \
B,,,4 =A,,,4|
G,,,4 F,,,4| \
E,,,4 F,,,4| \
B,,,4 A,,,4| \
G,,,4 F,,,4|
E,,,2 E,,2 E,,2- [E,,E,,]2| \
B,,,3-[B,,,B,,,] E,,3-[E,,D,,]| \
C,,3-[C,,C,,] B,,,3-[B,,,B,,,]| \
=A,,,3-[A,,,A,,,] B,,,4|
A,,,4 G,,,4| \
B,,,2- [B,,,-B,,,][B,,,B,,,] C,,2- [C,,-C,,][C,,B,,,]| \
A,,,2- [A,,,-A,,,][A,,,A,,,] B,,,2- [B,,,-B,,,][B,,,B,,,]| \
B,,,B,,, B,,,B,,, E,,E,, E,,E,,|
B,,,4 =A,,,4| \
G,,,4 F,,,4| \
E,,,4 F,,,4| \
B,,,4 F,,4|
B,,,4 =A,,,4| \
G,,,4 F,,,4| \
E,,,4 F,,,4| \
B,,,4 A,,,4|
G,,,4 F,,,4| \
E,,,2 E,,2 E,,2- [E,,E,,]2| \
B,,,3-[B,,,B,,,] E,,3-[E,,D,,]| \
C,,3-[C,,C,,] B,,,3-[B,,,B,,,]|
A,,,3-[A,,,A,,,] B,,,4| \
A,,,3-[A,,,A,,,] G,,,3-[A,,,G,,,]| \
B,,,2- [=B,,,_B,,,-][=B,,,_B,,,] C,,2- [C,,-B,,,]C,,| \
A,,,4 B,,,4|
B,,,B,,, B,,,B,,, E,,E,, D,,C,,| \
B,,,A,,, G,,,F,,, E,,,E,, E,,E,,| \
A,,,A,,, A,,,A,,, E,,,4|

